;FLAVOR:Marlin
;TIME:2641
;Filament used: 2.09798m
;Layer height: 0.2
;MINX:42.758
;MINY:43.469
;MINZ:0.263
;MAXX:77.242
;MAXY:75.742
;MAXZ:40.263
;Generated with Cura_SteamEngine 4.13.1
M140 S65
M105
M190 S65
M104 S205
M105
M109 S205
M82 ;absolute extrusion mode
G21;(metric values)
G90;(absolute positioning)
M82;(set extruder to absolute mode)
M107;(start with the fan off)
G28;(Home the printer)
G92 E0;(Reset the extruder to 0)
G0 Z5 E5 F500;(Move up and prime the nozzle)
G0 X-1 Z0;(Move outside the printable area)
G1 Y60 E8 F500;(Draw a priming/wiping line to the rear)
G1 X-1;(Move a little closer to the print area)
G1 Y10 E16 F500;(draw more priming/wiping)
G1 E15 F250;(Small retract)
G92 E0;(Zero the extruder)
G92 E0
G92 E0
G1 F2400 E-2.5
;LAYER_COUNT:205
;LAYER:0
M107
G0 F4320 X44.132 Y45.072 Z0.263
;TYPE:SKIRT
G1 F2400 E0
G1 F1800 X44.596 Y44.636 E0.02437
G1 X45.111 Y44.261 E0.04875
G1 X45.668 Y43.954 E0.07309
G1 X46.26 Y43.719 E0.09746
G1 X46.877 Y43.56 E0.12185
G1 X47.509 Y43.479 E0.14623
G1 X47.835 Y43.469 E0.15871
G1 X50.047 Y43.47 E0.24337
G1 X50.683 Y43.51 E0.26775
G1 X51.308 Y43.63 E0.29211
G1 X51.496 Y43.691 E0.29967
G1 X67.754 Y43.691 E0.92187
G1 X68.262 Y43.56 E0.94194
G1 X68.894 Y43.479 E0.96633
G1 X69.218 Y43.469 E0.97873
G1 X71.43 Y43.469 E1.06339
G1 X72.066 Y43.509 E1.08777
G1 X72.691 Y43.628 E1.11212
G1 X73.297 Y43.825 E1.13651
G1 X73.873 Y44.096 E1.16087
G1 X74.411 Y44.437 E1.18525
G1 X74.902 Y44.843 E1.20963
G1 X75.338 Y45.307 E1.234
G1 X75.713 Y45.822 E1.25838
G1 X76.02 Y46.379 E1.28272
G1 X76.255 Y46.971 E1.30709
G1 X76.414 Y47.588 E1.33148
G1 X76.495 Y48.22 E1.35586
G1 X76.505 Y48.546 E1.36834
G1 X76.504 Y50.759 E1.45303
G1 X76.464 Y51.395 E1.47742
G1 X76.385 Y51.806 E1.49344
G1 X76.385 Y57.348 E1.70553
G1 X76.345 Y57.984 E1.72992
G1 X76.284 Y58.304 E1.74238
G1 X76.285 Y62.405 E1.89933
G1 X76.367 Y62.962 E1.92088
G1 X76.385 Y63.387 E1.93715
G1 X76.385 Y65.644 E2.02353
G1 X76.45 Y65.733 E2.02775
G1 X76.757 Y66.29 E2.05209
G1 X76.992 Y66.882 E2.07646
G1 X77.151 Y67.499 E2.10085
G1 X77.232 Y68.131 E2.12523
G1 X77.242 Y68.455 E2.13764
G1 X77.242 Y70.667 E2.22229
G1 X77.202 Y71.303 E2.24668
G1 X77.083 Y71.928 E2.27103
G1 X76.886 Y72.534 E2.29541
G1 X76.615 Y73.11 E2.31977
G1 X76.274 Y73.648 E2.34415
G1 X75.868 Y74.139 E2.36853
G1 X75.404 Y74.575 E2.3929
G1 X74.889 Y74.95 E2.41728
G1 X74.332 Y75.257 E2.44162
G1 X73.74 Y75.492 E2.46599
G1 X73.123 Y75.651 E2.49038
G1 X72.491 Y75.732 E2.51476
G1 X72.165 Y75.742 E2.52725
G1 X69.953 Y75.741 E2.6119
G1 X69.317 Y75.701 E2.63629
G1 X69.065 Y75.668 E2.64601
G1 X63.143 Y75.668 E2.87265
G1 X62.507 Y75.628 E2.89703
G1 X61.945 Y75.521 E2.91893
G1 X58.219 Y75.521 E3.06152
G1 X57.968 Y75.584 E3.07143
G1 X57.046 Y75.668 E3.10686
G1 X51.605 Y75.668 E3.31508
G1 X51.106 Y75.732 E3.33434
G1 X50.782 Y75.742 E3.34674
G1 X48.57 Y75.742 E3.4314
G1 X47.934 Y75.702 E3.45578
G1 X47.309 Y75.583 E3.48013
G1 X46.703 Y75.386 E3.50452
G1 X46.127 Y75.115 E3.52888
G1 X45.589 Y74.774 E3.55326
G1 X45.098 Y74.368 E3.57764
G1 X44.662 Y73.904 E3.60201
G1 X44.287 Y73.389 E3.62639
G1 X43.98 Y72.832 E3.65073
G1 X43.745 Y72.24 E3.6751
G1 X43.586 Y71.623 E3.69948
G1 X43.505 Y70.991 E3.72387
G1 X43.495 Y70.665 E3.73635
G1 X43.496 Y68.453 E3.821
G1 X43.536 Y67.817 E3.84539
G1 X43.656 Y67.192 E3.86975
G1 X43.716 Y67.007 E3.87719
G1 X43.716 Y53.707 E4.38618
G1 X43.55 Y53.479 E4.39697
G1 X43.243 Y52.922 E4.42131
G1 X43.008 Y52.33 E4.44569
G1 X42.849 Y51.713 E4.47007
G1 X42.768 Y51.081 E4.49446
G1 X42.758 Y50.757 E4.50686
G1 X42.758 Y48.544 E4.59155
G1 X42.798 Y47.908 E4.61594
G1 X42.917 Y47.283 E4.64029
G1 X43.114 Y46.677 E4.66468
G1 X43.385 Y46.101 E4.68904
G1 X43.696 Y45.611 E4.71125
G0 F1620 X43.726 Y45.563
G0 X44.132 Y45.072
G0 F4320 X44.477 Y45.218
G1 F1800 X44.937 Y44.811 E4.73475
G1 X45.446 Y44.466 E4.75829
G1 X45.995 Y44.191 E4.78179
G1 X46.576 Y43.989 E4.80533
G1 X47.177 Y43.865 E4.82881
G1 X47.835 Y43.819 E4.85405
G1 X50.047 Y43.82 E4.93871
G1 X50.66 Y43.86 E4.96222
G1 X51.263 Y43.98 E4.98575
G1 X51.444 Y44.041 E4.99305
G1 X67.811 Y44.041 E5.61942
G1 X67.961 Y43.989 E5.62549
G1 X68.562 Y43.865 E5.64898
G1 X69.218 Y43.819 E5.67415
G1 X71.43 Y43.819 E5.7588
G1 X72.043 Y43.859 E5.78231
G1 X72.646 Y43.978 E5.80583
G1 X73.228 Y44.175 E5.82935
G1 X73.78 Y44.445 E5.85286
G1 X74.292 Y44.785 E5.87638
G1 X74.756 Y45.188 E5.8999
G1 X75.163 Y45.648 E5.92341
G1 X75.508 Y46.157 E5.94694
G1 X75.783 Y46.706 E5.97044
G1 X75.985 Y47.287 E5.99398
G1 X76.109 Y47.888 E6.01746
G1 X76.155 Y48.546 E6.04271
G1 X76.154 Y50.759 E6.1274
G1 X76.114 Y51.372 E6.15091
G1 X76.035 Y51.769 E6.1664
G1 X76.035 Y57.348 E6.37991
G1 X75.995 Y57.961 E6.40342
G1 X75.934 Y58.269 E6.41543
G1 X75.935 Y62.461 E6.57586
G1 X75.975 Y62.638 E6.5828
G1 X76.035 Y63.387 E6.61156
G1 X76.035 Y65.758 E6.7023
G1 X76.245 Y66.068 E6.71663
G1 X76.52 Y66.617 E6.74013
G1 X76.722 Y67.198 E6.76367
G1 X76.846 Y67.799 E6.78715
G1 X76.892 Y68.455 E6.81232
G1 X76.892 Y70.667 E6.89697
G1 X76.852 Y71.28 E6.92048
G1 X76.733 Y71.883 E6.944
G1 X76.536 Y72.465 E6.96752
G1 X76.266 Y73.017 E6.99103
G1 X75.926 Y73.529 E7.01456
G1 X75.523 Y73.993 E7.03808
G1 X75.063 Y74.4 E7.06158
G1 X74.554 Y74.745 E7.08511
G1 X74.005 Y75.02 E7.10861
G1 X73.424 Y75.222 E7.13215
G1 X72.823 Y75.346 E7.15564
G1 X72.165 Y75.392 E7.18088
G1 X69.953 Y75.391 E7.26553
G1 X69.34 Y75.351 E7.28904
G1 X69.065 Y75.318 E7.29964
G1 X63.143 Y75.318 E7.52628
G1 X62.53 Y75.278 E7.54979
G1 X61.988 Y75.171 E7.57093
G1 X58.197 Y75.171 E7.71601
G1 X57.67 Y75.277 E7.73658
G1 X57.046 Y75.318 E7.76051
G1 X51.574 Y75.318 E7.96993
G1 X51.438 Y75.346 E7.97524
G1 X50.782 Y75.392 E8.00041
G1 X48.57 Y75.392 E8.08506
G1 X47.957 Y75.352 E8.10857
G1 X47.354 Y75.233 E8.13209
G1 X46.772 Y75.036 E8.15561
G1 X46.22 Y74.766 E8.17912
G1 X45.708 Y74.426 E8.20264
G1 X45.244 Y74.023 E8.22616
G1 X44.837 Y73.563 E8.24967
G1 X44.492 Y73.054 E8.2732
G1 X44.217 Y72.505 E8.2967
G1 X44.015 Y71.924 E8.32024
G1 X43.891 Y71.323 E8.34373
G1 X43.845 Y70.665 E8.36897
G1 X43.846 Y68.453 E8.45362
G1 X43.886 Y67.84 E8.47713
G1 X44.006 Y67.237 E8.50066
G1 X44.066 Y67.059 E8.50785
G1 X44.066 Y53.603 E9.02281
G1 X43.755 Y53.144 E9.04403
G1 X43.48 Y52.595 E9.06753
G1 X43.278 Y52.014 E9.09107
G1 X43.154 Y51.413 E9.11455
G1 X43.108 Y50.757 E9.13972
G1 X43.108 Y48.544 E9.22441
G1 X43.148 Y47.931 E9.24792
G1 X43.267 Y47.328 E9.27144
G1 X43.464 Y46.746 E9.29496
G1 X43.734 Y46.194 E9.31847
G1 X44.03 Y45.748 E9.33896
G0 F1620 X44.074 Y45.682
G0 X44.477 Y45.218
G0 F4320 X44.821 Y45.371
G1 F1800 X45.277 Y44.994 E9.3616
G1 X45.779 Y44.681 E9.38424
G1 X46.318 Y44.44 E9.40684
G1 X46.886 Y44.273 E9.42949
G1 X47.47 Y44.184 E9.4521
G1 X47.835 Y44.169 E9.46608
G1 X50.047 Y44.17 E9.55073
G1 X50.637 Y44.21 E9.57337
G1 X51.216 Y44.33 E9.596
G1 X51.39 Y44.391 E9.60305
G1 X67.87 Y44.391 E10.23374
G1 X68.271 Y44.273 E10.24974
G1 X68.855 Y44.184 E10.27234
G1 X69.218 Y44.169 E10.28625
G1 X71.43 Y44.169 E10.3709
G1 X72.02 Y44.209 E10.39353
G1 X72.599 Y44.328 E10.41615
G1 X73.157 Y44.524 E10.43879
G1 X73.683 Y44.794 E10.46141
G1 X74.168 Y45.132 E10.48404
G1 X74.603 Y45.532 E10.50665
G1 X74.98 Y45.988 E10.5293
G1 X75.293 Y46.49 E10.55194
G1 X75.534 Y47.029 E10.57453
G1 X75.701 Y47.597 E10.59719
G1 X75.79 Y48.181 E10.6198
G1 X75.805 Y48.546 E10.63378
G1 X75.804 Y50.759 E10.71847
G1 X75.764 Y51.349 E10.7411
G1 X75.685 Y51.73 E10.75599
G1 X75.685 Y57.348 E10.97099
G1 X75.645 Y57.938 E10.99362
G1 X75.584 Y58.234 E11.00519
G1 X75.585 Y62.492 E11.16814
G1 X75.662 Y62.937 E11.18543
G1 X75.685 Y63.387 E11.20267
G1 X75.685 Y65.86 E11.29731
G1 X75.717 Y65.899 E11.29924
G1 X76.03 Y66.401 E11.32188
G1 X76.271 Y66.94 E11.34448
G1 X76.438 Y67.508 E11.36713
G1 X76.527 Y68.092 E11.38974
G1 X76.542 Y68.455 E11.40365
G1 X76.542 Y70.667 E11.4883
G1 X76.502 Y71.257 E11.51093
G1 X76.383 Y71.836 E11.53355
G1 X76.187 Y72.394 E11.55619
G1 X75.917 Y72.92 E11.57881
G1 X75.579 Y73.405 E11.60144
G1 X75.179 Y73.84 E11.62405
G1 X74.723 Y74.217 E11.64669
G1 X74.221 Y74.53 E11.66933
G1 X73.682 Y74.771 E11.69193
G1 X73.114 Y74.938 E11.71459
G1 X72.53 Y75.027 E11.7372
G1 X72.165 Y75.042 E11.75118
G1 X69.953 Y75.041 E11.83583
G1 X69.363 Y75.001 E11.85846
G1 X69.065 Y74.968 E11.86993
G1 X63.143 Y74.968 E12.09657
G1 X62.553 Y74.928 E12.1192
G1 X62.032 Y74.821 E12.13955
G1 X58.139 Y74.821 E12.28854
G1 X57.964 Y74.871 E12.2955
G1 X57.379 Y74.955 E12.31812
G1 X57.046 Y74.968 E12.33088
G1 X51.532 Y74.968 E12.5419
G1 X50.782 Y75.042 E12.57074
G1 X48.57 Y75.042 E12.65539
G1 X47.98 Y75.002 E12.67802
G1 X47.401 Y74.883 E12.70064
G1 X46.843 Y74.687 E12.72328
G1 X46.317 Y74.417 E12.7459
G1 X45.832 Y74.079 E12.76853
G1 X45.397 Y73.679 E12.79114
G1 X45.02 Y73.223 E12.81379
G1 X44.707 Y72.721 E12.83643
G1 X44.466 Y72.182 E12.85902
G1 X44.299 Y71.614 E12.88168
G1 X44.21 Y71.03 E12.90429
G1 X44.195 Y70.665 E12.91827
G1 X44.196 Y68.453 E13.00292
G1 X44.236 Y67.863 E13.02555
G1 X44.356 Y67.284 E13.04818
G1 X44.416 Y67.113 E13.05512
G1 X44.416 Y53.474 E13.57708
G1 X44.283 Y53.313 E13.58507
G1 X43.97 Y52.811 E13.60771
G1 X43.729 Y52.272 E13.63031
G1 X43.562 Y51.704 E13.65297
G1 X43.473 Y51.12 E13.67557
G1 X43.458 Y50.757 E13.68948
G1 X43.458 Y48.544 E13.77417
G1 X43.498 Y47.954 E13.7968
G1 X43.617 Y47.375 E13.81942
G1 X43.813 Y46.817 E13.84205
G1 X44.083 Y46.291 E13.86468
G1 X44.362 Y45.891 E13.88335
G0 F1620 X44.421 Y45.806
G0 X44.821 Y45.371
G0 F4320 X44.768 Y45.936
G1 F1800 X45.165 Y45.531 E13.90505
G1 X45.615 Y45.185 E13.92677
G1 X46.109 Y44.907 E13.94847
G1 X46.637 Y44.701 E13.97016
G1 X47.189 Y44.571 E13.99186
G1 X47.835 Y44.519 E14.01666
G1 X50.047 Y44.52 E14.10131
G1 X50.612 Y44.56 E14.12299
G1 X51.167 Y44.68 E14.14472
G1 X51.333 Y44.741 E14.15149
G1 X67.919 Y44.741 E14.78624
G1 X68.022 Y44.701 E14.79046
G1 X68.574 Y44.571 E14.81217
G1 X69.218 Y44.519 E14.83689
G1 X71.43 Y44.519 E14.92155
G1 X71.996 Y44.559 E14.94326
G1 X72.55 Y44.678 E14.96495
G1 X73.082 Y44.874 E14.98664
G1 X73.582 Y45.142 E15.00835
G1 X74.038 Y45.479 E15.03005
G1 X74.443 Y45.876 E15.05176
G1 X74.789 Y46.326 E15.07348
G1 X75.067 Y46.82 E15.09517
G1 X75.273 Y47.348 E15.11686
G1 X75.403 Y47.9 E15.13857
G1 X75.455 Y48.546 E15.16337
G1 X75.454 Y50.759 E15.24806
G1 X75.414 Y51.324 E15.26974
G1 X75.335 Y51.689 E15.28403
G1 X75.335 Y57.348 E15.5006
G1 X75.295 Y57.914 E15.52231
G1 X75.234 Y58.197 E15.53339
G1 X75.235 Y62.53 E15.69922
G1 X75.269 Y62.664 E15.70451
G1 X75.335 Y63.387 E15.73229
G1 X75.335 Y65.989 E15.83187
G1 X75.526 Y66.237 E15.84385
G1 X75.804 Y66.731 E15.86554
G1 X76.01 Y67.259 E15.88723
G1 X76.14 Y67.811 E15.90894
G1 X76.192 Y68.455 E15.93366
G1 X76.192 Y70.667 E16.01831
G1 X76.152 Y71.233 E16.04003
G1 X76.033 Y71.787 E16.06171
G1 X75.837 Y72.319 E16.08341
G1 X75.569 Y72.819 E16.10512
G1 X75.232 Y73.275 E16.12682
G1 X74.835 Y73.68 E16.14853
G1 X74.385 Y74.026 E16.17025
G1 X73.891 Y74.304 E16.19194
G1 X73.363 Y74.51 E16.21363
G1 X72.811 Y74.64 E16.23534
G1 X72.165 Y74.692 E16.26014
G1 X69.953 Y74.691 E16.34479
G1 X69.388 Y74.651 E16.36647
G1 X69.065 Y74.618 E16.37889
G1 X63.143 Y74.618 E16.60553
G1 X62.577 Y74.578 E16.62724
G1 X62.079 Y74.471 E16.64674
G1 X58.098 Y74.471 E16.79909
G1 X57.663 Y74.57 E16.81616
G1 X57.046 Y74.618 E16.83985
G1 X51.519 Y74.618 E17.05136
G1 X51.426 Y74.64 E17.05502
G1 X50.782 Y74.692 E17.07975
G1 X48.57 Y74.692 E17.1644
G1 X48.004 Y74.652 E17.18612
G1 X47.45 Y74.533 E17.2078
G1 X46.918 Y74.337 E17.2295
G1 X46.418 Y74.069 E17.25121
G1 X45.962 Y73.732 E17.27291
G1 X45.557 Y73.335 E17.29461
G1 X45.211 Y72.885 E17.31634
G1 X44.933 Y72.391 E17.33803
G1 X44.727 Y71.863 E17.35972
G1 X44.597 Y71.311 E17.38142
G1 X44.545 Y70.665 E17.40622
G1 X44.546 Y68.453 E17.49088
G1 X44.586 Y67.888 E17.51255
G1 X44.706 Y67.333 E17.53428
G1 X44.766 Y67.17 E17.54093
G1 X44.766 Y53.355 E18.06963
G1 X44.474 Y52.975 E18.08797
G1 X44.196 Y52.481 E18.10966
G1 X43.99 Y51.953 E18.13135
G1 X43.86 Y51.401 E18.15306
G1 X43.808 Y50.757 E18.17778
G1 X43.808 Y48.544 E18.26247
G1 X43.848 Y47.978 E18.28419
G1 X43.967 Y47.424 E18.30587
G1 X44.163 Y46.892 E18.32757
G1 X44.371 Y46.503 E18.34445
G0 F1620 X44.431 Y46.392
G0 X44.768 Y45.936
G0 F4320 X45.114 Y46.072
G1 F1800 X45.507 Y45.699 E18.36519
G1 X45.951 Y45.388 E18.38593
G1 X46.435 Y45.145 E18.40666
G1 X46.95 Y44.977 E18.42739
G1 X47.484 Y44.886 E18.44812
G1 X47.835 Y44.869 E18.46157
G1 X50.047 Y44.87 E18.54622
G1 X50.587 Y44.91 E18.56695
G1 X51.116 Y45.029 E18.5877
G1 X51.276 Y45.091 E18.59426
G1 X67.986 Y45.091 E19.23376
G1 X68.335 Y44.977 E19.24781
G1 X68.869 Y44.886 E19.26854
G1 X69.218 Y44.869 E19.28191
G1 X71.43 Y44.869 E19.36656
G1 X71.97 Y44.909 E19.38728
G1 X72.499 Y45.028 E19.40803
G1 X73.004 Y45.223 E19.42875
G1 X73.476 Y45.491 E19.44952
G1 X73.902 Y45.825 E19.47024
G1 X74.275 Y46.218 E19.49098
G1 X74.586 Y46.662 E19.51172
G1 X74.829 Y47.146 E19.53245
G1 X74.997 Y47.661 E19.55318
G1 X75.088 Y48.195 E19.57391
G1 X75.105 Y48.546 E19.58736
G1 X75.104 Y50.759 E19.67205
G1 X75.064 Y51.299 E19.69277
G1 X74.985 Y51.65 E19.70654
G1 X74.985 Y57.348 E19.9246
G1 X74.945 Y57.888 E19.94533
G1 X74.884 Y58.159 E19.95596
G1 X74.885 Y62.568 E20.12469
G1 X74.961 Y62.965 E20.14016
G1 X74.985 Y63.387 E20.15633
G1 X74.985 Y66.101 E20.2602
G1 X75.012 Y66.129 E20.26169
G1 X75.323 Y66.573 E20.28243
G1 X75.566 Y67.057 E20.30316
G1 X75.734 Y67.572 E20.32389
G1 X75.825 Y68.106 E20.34462
G1 X75.842 Y68.455 E20.35799
G1 X75.842 Y70.667 E20.44265
G1 X75.802 Y71.207 E20.46337
G1 X75.683 Y71.736 E20.48412
G1 X75.488 Y72.241 E20.50484
G1 X75.22 Y72.713 E20.52561
G1 X74.886 Y73.139 E20.54632
G1 X74.493 Y73.512 E20.56706
G1 X74.049 Y73.823 E20.58781
G1 X73.565 Y74.066 E20.60853
G1 X73.05 Y74.234 E20.62926
G1 X72.516 Y74.325 E20.64999
G1 X72.165 Y74.342 E20.66344
G1 X69.953 Y74.341 E20.7481
G1 X69.413 Y74.301 E20.76882
G1 X69.065 Y74.268 E20.7822
G1 X63.143 Y74.268 E21.00883
G1 X62.603 Y74.228 E21.02955
G1 X62.127 Y74.121 E21.04822
G1 X58.046 Y74.121 E21.2044
G1 X57.905 Y74.166 E21.21007
G1 X57.37 Y74.254 E21.23082
G1 X57.046 Y74.268 E21.24323
G1 X51.465 Y74.268 E21.45681
G1 X50.782 Y74.342 E21.4831
G1 X48.57 Y74.342 E21.56776
G1 X48.03 Y74.302 E21.58848
G1 X47.501 Y74.183 E21.60923
G1 X46.996 Y73.988 E21.62995
G1 X46.524 Y73.72 E21.65072
G1 X46.098 Y73.386 E21.67144
G1 X45.725 Y72.993 E21.69217
G1 X45.414 Y72.549 E21.71292
G1 X45.171 Y72.065 E21.73364
G1 X45.003 Y71.55 E21.75437
G1 X44.912 Y71.016 E21.7751
G1 X44.895 Y70.665 E21.78855
G1 X44.896 Y68.453 E21.87321
G1 X44.936 Y67.913 E21.89393
G1 X45.055 Y67.384 E21.91468
G1 X45.116 Y67.227 E21.92113
G1 X45.116 Y53.218 E22.45725
G1 X44.988 Y53.083 E22.46437
G1 X44.677 Y52.639 E22.48511
G1 X44.434 Y52.155 E22.50584
G1 X44.266 Y51.64 E22.52657
G1 X44.175 Y51.106 E22.5473
G1 X44.158 Y50.757 E22.56067
G1 X44.158 Y48.544 E22.64537
G1 X44.198 Y48.004 E22.66609
G1 X44.317 Y47.475 E22.68684
G1 X44.512 Y46.97 E22.70756
G1 X44.705 Y46.631 E22.72248
G0 F1620 X44.78 Y46.498
G0 X45.114 Y46.072
G0 F4320 X45.459 Y46.216
G1 F1800 X45.848 Y45.877 E22.74223
G1 X46.284 Y45.602 E22.76196
G1 X46.757 Y45.398 E22.78167
G1 X47.256 Y45.269 E22.8014
G1 X47.835 Y45.219 E22.82364
G1 X50.047 Y45.22 E22.90829
G1 X50.56 Y45.26 E22.92798
G1 X51.062 Y45.379 E22.94773
G1 X51.214 Y45.441 E22.95401
G1 X68.042 Y45.441 E23.59802
G1 X68.142 Y45.398 E23.60218
G1 X68.641 Y45.269 E23.62191
G1 X69.218 Y45.219 E23.64407
G1 X71.43 Y45.219 E23.72872
G1 X71.944 Y45.259 E23.74845
G1 X72.445 Y45.378 E23.76816
G1 X72.922 Y45.573 E23.78788
G1 X73.364 Y45.839 E23.80762
G1 X73.758 Y46.17 E23.82732
G1 X74.097 Y46.559 E23.84706
G1 X74.372 Y46.995 E23.86679
G1 X74.576 Y47.468 E23.8865
G1 X74.705 Y47.967 E23.90623
G1 X74.755 Y48.546 E23.92847
G1 X74.754 Y50.759 E24.01316
G1 X74.714 Y51.272 E24.03285
G1 X74.635 Y51.605 E24.04595
G1 X74.635 Y57.348 E24.26574
G1 X74.595 Y57.862 E24.28547
G1 X74.534 Y58.118 E24.29554
G1 X74.535 Y62.611 E24.46748
G1 X74.572 Y62.745 E24.4728
G1 X74.635 Y63.387 E24.49749
G1 X74.635 Y66.242 E24.60675
G1 X74.834 Y66.47 E24.61833
G1 X75.109 Y66.906 E24.63806
G1 X75.313 Y67.379 E24.65777
G1 X75.442 Y67.878 E24.6775
G1 X75.492 Y68.455 E24.69966
G1 X75.492 Y70.667 E24.78432
